teeny/solid/netlify.svg

<svg width="15" height="15" viewBox="0 0 15 15" fill="none" xmlns="http://www.w3.org/2000/svg">
<path d="M7.14645 0.146447C7.34172 -0.0488155 7.6583 -0.0488155 7.85356 0.146447L8.83363 1.12651L7.01342 4.06685L4.30815 2.98475L7.14645 0.146447Z" fill="black"/>
<path d="M3.53884 3.75406L2.42638 4.86652L4.71994 7.7717L6.47901 4.93012L3.53884 3.75406Z" fill="black"/>
<path d="M1.7144 5.5785L0.146455 7.14645C0.12315 7.16975 0.102626 7.19478 0.0848846 7.22113L3.60707 7.97589L1.7144 5.5785Z" fill="black"/>
<path d="M0.659968 8.36707L1.66655 9.37365L2.84238 8.83473L0.659968 8.36707Z" fill="black"/>
<path d="M2.42086 10.128L2.93996 10.6471L3.59422 9.59016L2.42086 10.128Z" fill="black"/>
<path d="M3.66637 11.3735L7.14645 14.8536C7.34172 15.0488 7.6583 15.0488 7.85356 14.8536L8.17746 14.5297L8.2957 13.9148L4.81919 9.51124L3.66637 11.3735Z" fill="black"/>
<path d="M9.43824 13.2689L11.9259 10.7812L9.99616 10.3677L9.43824 13.2689Z" fill="black"/>
<path d="M12.7681 9.93897L14.549 8.15812L10.7159 6.62489L10.185 9.38545L12.7681 9.93897Z" fill="black"/>
<path d="M14.9209 7.22983C14.9018 7.20028 14.8794 7.1723 14.8536 7.14645L12.9906 5.28349L11.6226 5.91051L14.9209 7.22983Z" fill="black"/>
<path d="M12.2363 4.52918L11.2992 3.59205L11.0109 5.0908L12.2363 4.52918Z" fill="black"/>
<path d="M10.4451 2.73797L9.56004 1.85293L7.9561 4.44392L9.96267 5.24655L10.4451 2.73797Z" fill="black"/>
<path d="M5.9983 8.48829L9.6622 6.80901L9.20703 9.17588L5.9983 8.48829Z" fill="black"/>
<path d="M6.11237 9.53544L9.01814 10.1581L8.54526 12.6171L6.11237 9.53544Z" fill="black"/>
<path d="M6.18693 7.30181L9.08617 5.97299L7.42169 5.3072L6.18693 7.30181Z" fill="black"/>
</svg>

<svg viewBox="0 0 15 15" xmlns="http://www.w3.org/2000/svg"><g><path d="M7.14.14c.19-.2.51-.2.7 0l.98.98 -1.83 2.94 -2.71-1.09L7.11.13Z"/><path d="M3.53 3.75L2.41 4.86l2.29 2.9 1.75-2.85L3.5 3.73Z"/><path d="M1.71 5.57L.14 7.13c-.03.02-.05.04-.07.07l3.52.75 -1.9-2.4Z"/><path d="M.65 8.36l1 1 1.17-.54 -2.19-.47Z"/><path d="M2.42 10.128l.51.51 .65-1.06 -1.18.53Z"/><path d="M3.66 11.37l3.48 3.48c.19.19.51.19.7 0l.32-.33 .11-.62 -3.48-4.41 -1.16 1.86Z"/><path d="M9.43 13.26l2.48-2.49 -1.93-.42 -.56 2.9Z"/><path d="M12.76 9.93l1.78-1.79L10.7 6.6l-.54 2.76 2.58.55Z"/><path d="M14.92 7.22c-.02-.03-.05-.06-.07-.09l-1.87-1.87 -1.37.62 3.29 1.31Z"/><path d="M12.23 4.52l-.94-.94L11 5.07l1.22-.57Z"/><path d="M10.44 2.73l-.89-.89 -1.61 2.59 2 .8 .48-2.51Z"/><path d="M5.99 8.48L9.65 6.8l-.46 2.36 -3.21-.69Z"/><path d="M6.11 9.53l2.9.62 -.48 2.45 -2.44-3.09Z"/><path d="M6.18 7.3l2.89-1.33L7.4 5.3 6.16 7.29Z"/></g></svg>
